icons/folder_type_dependabot.svg

<svg xmlns="http://www.w3.org/2000/svg" viewBox="0 0 32 32"><path d="M27.4 5.5h-9.3L16 9.7H4.3v16.8h25.2v-21Zm0 4.2h-8.2l1.1-2.1h7.1Z" style="fill:#5981aa"/><path d="m12.971 16.36 7.778-5.1a1.6 1.6 0 0 1 1.752 0l7.777 5.1A1.6 1.6 0 0 1 31 17.7v6.6a1.6 1.6 0 0 1-.722 1.336l-7.777 5.1a1.6 1.6 0 0 1-1.752 0l-7.778-5.1a1.6 1.6 0 0 1-.721-1.336v-6.6a1.6 1.6 0 0 1 .721-1.34Z" style="fill:#0366d6"/><path d="M27.042 21h-.417v-2.5a.625.625 0 0 0-.625-.625h-3.125v-2.292a.209.209 0 0 0-.209-.208h-1.458a.208.208 0 0 0-.208.208v1.459a.208.208 0 0 0 .208.208h1.042v.625h-5a.625.625 0 0 0-.625.625V21h-.417a.209.209 0 0 0-.208.209v2.083a.208.208 0 0 0 .208.208h.417v1.25a.624.624 0 0 0 .625.625H26a.625.625 0 0 0 .625-.625V23.5h.417a.208.208 0 0 0 .208-.208v-2.083a.209.209 0 0 0-.208-.209Zm-6.221.491-1.31 1.31a.252.252 0 0 1-.356 0l-.79-.789a.254.254 0 0 1 0-.357l.269-.268a.25.25 0 0 1 .356 0l.343.342.863-.863a.252.252 0 0 1 .357 0l.268.268a.252.252 0 0 1 0 .357Zm4.167 0-1.31 1.31a.253.253 0 0 1-.357 0l-.789-.789a.253.253 0 0 1 0-.357l.268-.268a.252.252 0 0 1 .357 0l.343.342.863-.863a.25.25 0 0 1 .356 0l.269.268a.253.253 0 0 1 0 .357Z" style="fill:#fff"/></svg>

<svg xmlns="http://www.w3.org/2000/svg" viewBox="0 0 32 32"><title>folder_type_dependabot</title><path d="M27.4,5.5H18.1L16,9.7H4.3V26.5H29.5V5.5Zm0,4.2H19.2l1.1-2.1h7.1Z" style="fill:#5981aa"/><path d="M12.971,16.36l7.778-5.1a1.6,1.6,0,0,1,1.752,0l7.777,5.1A1.6,1.6,0,0,1,31,17.7V24.3a1.6,1.6,0,0,1-.722,1.336l-7.777,5.1a1.6,1.6,0,0,1-1.752,0l-7.778-5.1A1.6,1.6,0,0,1,12.25,24.3V17.7A1.6,1.6,0,0,1,12.971,16.36Z" style="fill:#0366d6"/><path d="M27.042,21h-.417V18.5A.625.625,0,0,0,26,17.875H22.875V15.583a.209.209,0,0,0-.209-.208H21.208a.208.208,0,0,0-.208.208v1.459a.208.208,0,0,0,.208.208H22.25v.625h-5a.625.625,0,0,0-.625.625V21h-.417a.209.209,0,0,0-.208.209v2.083a.208.208,0,0,0,.208.208h.417v1.25a.624.624,0,0,0,.625.625H26a.625.625,0,0,0,.625-.625V23.5h.417a.208.208,0,0,0,.208-.208V21.209A.209.209,0,0,0,27.042,21Zm-6.221.491-1.31,1.31a.252.252,0,0,1-.356,0l-.79-.789a.254.254,0,0,1,0-.357l.269-.268a.25.25,0,0,1,.356,0l.343.342.863-.863a.252.252,0,0,1,.357,0l.268.268A.252.252,0,0,1,20.821,21.491Zm4.167,0-1.31,1.31a.253.253,0,0,1-.357,0l-.789-.789a.253.253,0,0,1,0-.357l.268-.268a.252.252,0,0,1,.357,0l.343.342.863-.863a.25.25,0,0,1,.356,0l.269.268A.253.253,0,0,1,24.988,21.491Z" style="fill:#fff"/></svg>
